X: 39612
T: Temperance
R: reel
M: 4/4
K: Gmajor
|:G2GF GABc|dBge dBAG|BEED EFGA|BGAF GFED|
G2 GF GABc|dBge dBAG|BEED EFGA|1 BGAF G2GF:|2 BGAF G2GA||
|:Beed e2ef|gfaf gfed|Bdde d2ef|gfaf gfed|
Beed e2ef|gfaf gfed|BEED EFGA|1 BGAF G2GA:|2 BGAF G2GF||

